packages/components/src/components/icon/common/ic-linux.svg

<svg xmlns="http://www.w3.org/2000/svg" width="40" height="40" fill="none"><path d="M0 6c0-3.3 2.7-6 6-6h28c3.3 0 6 2.7 6 6v28c0 3.3-2.7 6-6 6H6c-3.3 0-6-2.7-6-6V6Z" fill="var(--general-section-1)"/><path d="M29.4 27.2c-.5-.5-.3-1.5-.9-2 .6-3.5-1-6.5-3-8.5-1.6-1.6-1-3.3-1-4.6 0-2.3-1-4.6-3.7-4.6-3 0-3.8 2.5-3.8 3.9-.1 3.3.7 4.2-1.3 6.7-2.3 2.9-2.7 5.7-2.1 7.3-.3.2-.6.6-1.2.8-1.7.8-.5 2-1 2.9-.1.2-.1.5-.1.8 0 .7.6 1.4 1.7 1.3 1.5-.1 2.9.9 3.8.9.8 0 1.4-.4 1.7-1 1.5-.4 3.2-.3 4.6 0 .3.7 1 1.2 1.8 1.2 1.6 0 2-1.9 3.9-2.6.7-.2 1.1-.9 1.1-1.5 0-.4-.2-.8-.5-1ZM20 16.4c-.4 0-.6-.3-1.1-.6-.5-.4-1.1-.7-1.1-1.1 0-.3.4-.4.9-.7.6-.3.8-.7 1.3-.7.6 0 .7.3 1.5.6.7.3 1.2.5 1.2.8 0 .4-.7.7-1.2.9-.6.4-.9.8-1.5.8Zm1.7-5.4c.9.1 1 1.7.6 2.5l-.4-.1c.2-.6.2-1.5-.5-1.6-.4 0-.6.5-.7 1-.1-.1-.3-.1-.5-.2.1-.9.7-1.7 1.5-1.6Zm-3.5.3c.7-.1 1.1.7 1.1 1.5l-.3.2c-.1-.4-.2-.9-.6-.8-.5.1-.4 1.1-.2 1.3l-.3.2c-.4-.7-.4-2.2.3-2.4ZM16 31.2c-2-.9-2.7-.7-3.1-.7-.8 0-1.1-.6-.8-1.2.3-.4.2-.9.1-1.4-.1-.6-.1-.8.5-1 .9-.4 1.2-.9 1.5-1.2.8-1 1.6.6 2.2 1.9.5.9 1.3 1.3 1.5 2.3.3.9-.7 1.9-1.9 1.3Zm7.2-1.9c-1.4.7-3.2 1-4.6.3-.2-.6-.5-1-.9-1.4.6-.1 1-.8.5-1.5s-1.6-1.3-2.7-2.1c-1-.8-1.3-2.7 0-4.9-.6 1.9-.2 3.7.1 4.2.1-1 .2-2.7 1.5-4.8.8-1 .8-2.4.8-3.2l.6.4c.5.4.9.8 1.5.8.8 0 1.3-.5 1.9-.9.2-.2.6-.3 1-.6.5 2.6 2.7 5.7 2.8 7.4.6-1-.1-3.6-.1-3.6.9 1.3.9 2.4 1 3.8.6.2 1.2.9 1.3 1.7h-.3c-.1-.9-2.7-2.3-2.9-.5-1.2.2-.8 2.1-1 3.4-.1.5-.3 1-.5 1.5Zm5-.1c-1 .4-1.7 1.3-2.2 1.8-.9 1-2.1.5-2.2-.4-.1-1 .4-1.6.6-2.7.2-1 0-2.6.4-2.8.3 1.9 2.2 1.1 2.6.6.7 0 .7.2.9.9.1.4.2.7.6 1.1.4.5.3 1.2-.7 1.5Zm-8.3-13.4c-.6 0-1.1-.5-1.5-.8-.2-.2 0-.5.2-.3.4.3.8.7 1.3.7.7 0 1.2-.6 2-.9.2-.1.4.3.1.4-.7.3-1.3.9-2.1.9Z" fill="var(--text-prominent)"/></svg>

<svg xmlns="http://www.w3.org/2000/svg" width="40" height="40" viewBox="0 0 40 40" fill="none"><path d="M0 6C0 2.7 2.7 0 6 0H34C37.3 0 40 2.7 40 6V34C40 37.3 37.3 40 34 40H6C2.7 40 0 37.3 0 34V6Z" fill="var(--general-section-1)"/><path d="M29.4 27.2C28.9 26.7 29.1 25.7 28.5 25.2 29.1 21.7 27.5 18.7 25.5 16.7 23.9 15.1 24.5 13.4 24.5 12.1 24.5 9.8 23.5 7.5 20.8 7.5 17.8 7.5 17 10 17 11.4 16.9 14.7 17.7 15.6 15.7 18.1 13.4 21 13 23.8 13.6 25.4 13.3 25.6 13 26 12.4 26.2 10.7 27 11.9 28.2 11.4 29.1 11.3 29.3 11.3 29.6 11.3 29.9 11.3 30.6 11.9 31.3 13 31.2 14.5 31.1 15.9 32.1 16.8 32.1 17.6 32.1 18.2 31.7 18.5 31.1 20 30.7 21.7 30.8 23.1 31.1 23.4 31.8 24.1 32.3 24.9 32.3 26.5 32.3 26.9 30.4 28.8 29.7 29.5 29.5 29.9 28.8 29.9 28.2 29.9 27.8 29.7 27.4 29.4 27.2ZM20 16.4C19.6 16.4 19.4 16.1 18.9 15.8 18.4 15.4 17.8 15.1 17.8 14.7 17.8 14.4 18.2 14.3 18.7 14 19.3 13.7 19.5 13.3 20 13.3 20.6 13.3 20.7 13.6 21.5 13.9 22.2 14.2 22.7 14.4 22.7 14.7 22.7 15.1 22 15.4 21.5 15.6 20.9 16 20.6 16.4 20 16.4ZM21.7 11C22.6 11.1 22.7 12.7 22.3 13.5L21.9 13.4C22.1 12.8 22.1 11.9 21.4 11.8 21 11.8 20.8 12.3 20.7 12.8 20.6 12.7 20.4 12.7 20.2 12.6 20.3 11.7 20.9 10.9 21.7 11ZM18.2 11.3C18.9 11.2 19.3 12 19.3 12.8L19 13C18.9 12.6 18.8 12.1 18.4 12.2 17.9 12.3 18 13.3 18.2 13.5L17.9 13.7C17.5 13 17.5 11.5 18.2 11.3ZM16 31.2C14 30.3 13.3 30.5 12.9 30.5 12.1 30.5 11.8 29.9 12.1 29.3 12.4 28.9 12.3 28.4 12.2 27.9 12.1 27.3 12.1 27.1 12.7 26.9 13.6 26.5 13.9 26 14.2 25.7 15 24.7 15.8 26.3 16.4 27.6 16.9 28.5 17.7 28.9 17.9 29.9 18.2 30.8 17.2 31.8 16 31.2ZM23.2 29.3C21.8 30 20 30.3 18.6 29.6 18.4 29 18.1 28.6 17.7 28.2 18.3 28.1 18.7 27.4 18.2 26.7 17.7 26 16.6 25.4 15.5 24.6 14.5 23.8 14.2 21.9 15.5 19.7 14.9 21.6 15.3 23.4 15.6 23.9 15.7 22.9 15.8 21.2 17.1 19.1 17.9 18.1 17.9 16.7 17.9 15.9L18.5 16.3C19 16.7 19.4 17.1 20 17.1 20.8 17.1 21.3 16.6 21.9 16.2 22.1 16 22.5 15.9 22.9 15.6 23.4 18.2 25.6 21.3 25.7 23 26.3 22 25.6 19.4 25.6 19.4 26.5 20.7 26.5 21.8 26.6 23.2 27.2 23.4 27.8 24.1 27.9 24.9L27.6 24.9C27.5 24 24.9 22.6 24.7 24.4 23.5 24.6 23.9 26.5 23.7 27.8 23.6 28.3 23.4 28.8 23.2 29.3ZM28.2 29.2C27.2 29.6 26.5 30.5 26 31 25.1 32 23.9 31.5 23.8 30.6 23.7 29.6 24.2 29 24.4 27.9 24.6 26.9 24.4 25.3 24.8 25.1 25.1 27 27 26.2 27.4 25.7 28.1 25.7 28.1 25.9 28.3 26.6 28.4 27 28.5 27.3 28.9 27.7 29.3 28.2 29.2 28.9 28.2 29.2ZM19.9 15.8C19.3 15.8 18.8 15.3 18.4 15 18.2 14.8 18.4 14.5 18.6 14.7 19 15 19.4 15.4 19.9 15.4 20.6 15.4 21.1 14.8 21.9 14.5 22.1 14.4 22.3 14.8 22 14.9 21.3 15.2 20.7 15.8 19.9 15.8Z" fill="var(--text-prominent)"/></svg>
